X: 1
T:Lord Mayo
T:Tiarna Mhaigh Eo
M:4/8
L:1/8
C:David Murphy
R:March
K:ADor
AG AB|e2 e/2d/2B/2d/2|eA AB/2A/2|G/2A/2G/2F/2 EE|!
AG AB|e2 gg/2f/2|ee e/2d/2B/2G/2|1 A2 AE:|2 A2  Ae|]!
a2 g/2e/2g/2a/2|b2 b/2a/2g|ed d/2e/2g|G>A GE|!
a2 g/2e/2g/2a/2|b2 b/2a/2g|ed d/2e/2g|a2  ae||!
a2 g/2e/2g/2a/2|b2 b/2a/2g|ed d/2e/2g|G>A GE|!
A/2G/2A/2B/2 dB|AG gg/2e/2|dd B/2d/2B/2G/2|A2  AE|]!
